X:102
T: ES LEBE WAS AUF ERDEN STOLZIERT
N: B0590
O: Europa, Mitteleuropa, Deutschland, Wetzlar, Schwalbach
R: Staende -, Jaeger - Lied
M: 6/8
L: 1/8
K: G
D | G2GB2B | d3B2
G | A2AAGA | B3z2
D | c2cA2A | d3ed
c | B2BABA | G3z2
D | B,2DG2B | d3ed
c | B2BABA | G3z2

